X:61
T:Jig, RDO.61
M:6/8
L:1/8
Q:3/8=120
S:Robert D. Owen MS,Indiana,1826.
R:.Jig
O:Indiana,USA
A:New Harmony
Z:vmp.Chris Partington
K:Bb
[Gg]|[D2d2][Gg][G2g2][Aa]|b2g afd|fgf gfd|f2a fdc|!
d2gg2b|agf abc’|d’e’d’ c’af|g3g2:|!
|:d2gg2a|b2g afd|f2df2g|a2g fdc|!
d2g gab|agfg2d|fed cAF|G3G2:|

